X:17924
T:Två slängpolskor efter John-Erik Mattson, Rätan
R:sydjämtsk slängpolska
N:De första två polskor John-Erik lärde sig
N:(The first two polskas John-Erik learnt
A:Rätan, s. Jämtland
O:Sweden
Z:Lennart Sohlman, Älta, Sweden
M:3/4
L:1/8
Q:1/4=150
K:D
T: Nr 1 \
"D"a^g/a/ b>a (f>d)|"A"(3fgf (e>d) e>f|"A7"(3gfg (a>g) e>c|"D"(cd) db a2
|\
"D"a^g/a/ b>a (f>d)|"A"(3fgf (e>d) e>f|"A7"(3gfg (a>g) e>c|"D"(cd) d4::\
"D"f2 Af Af|{g}f>e (e>d) e>f|"G"g2 Bg Bg|"D"(gb) a^g (a2|\
"D"f2) Af Af|{g}f>e e>d e>f|"A7"(3gfg (a>g) e>c|"D"(cd) d4:|\
T: Nr 2 \
"D"f2 (fg) eg|"D"(fd) (dF) Ad|"A"(dc) (ce) Ac|"D"(cd) (dF) Ad|\
"D"(df) (fg) eg|"D"(fd) (dF) Ad|"A7"(dc) (ce) Ac|"D"(cd) d4::\
"D"f2 {g}(3fef df|"G"g2 {a}(3gfg b2|"A7"c2 ce ac|"D"(cd) df a2|\
"D"f2 {g}(3fef df|"G"g2 {a}(3gfg b2|"A7"c2 ce ac|"D"(cd) d4:|\
T:Andrastämmor (komp)
T:Nr 1
D>F [F2A2] [F2A2]|A2 E2 E>C|A,>C [C2E2] [C2E2]|D2 (AF) [F3/2A3/2]A/|\
D>F [F2A2] [F2A2]|A2 E2 E>C|A,>C [E2A2] [E2A2]|[F2A2] [F4A4]::!\
{D}[F2A2] [F2A2] FA|A>E [C2E2] [E2A2]|B2 DB DB|A2 FA FA|\
A2 [F2A2] FA|A>E [C2E2] [E2A2]|A2 E2 E>G|[F2A2] [F4A4]:|!\
T:Nr 2
{A,}D2 [F2A2] E2|D2 [F2A2] F2|A,2 [E2A2] E>C|D2 [F2A2] DF|\
[F2A2] D2 E2|[F2A2] D2 A,2|A,>C E2 [C2E2]|{E}D2 [F4A4]::!\
{D}[F2A2] [F2A2] DF|{G,}[G,2G2] [G,2G2] [G2B2]|[E2A2] E2 A2|(DF) [F2A2]
F>A|\
A2 F2 D=C|G,2 [B,2D2] [D2B2]|[E2A2] (EA) (A>G)|[F2A2] [F4A4]:|


